X:1
T:Title
%%score 1 2 3
L:1/8
Q:1/4=135
M:4/4
K:F
V:1 treble nm="Grand Piano"
V:2 treble nm="Grand Piano, Melody"
V:3 bass nm="Grand Piano"
V:1
 A4 A2 A2 | A2 c2 d2 c2 | c6 c2 | f2 d2 gfed | c6 z2 | z8 | z8 | z4 z2 A2 | c2 c2 c2 de | %9
 f2 f2 f2 ed | c2 c2 c2 cB | A2 A2 A2 AB | c2 c2 f2 eg | f8 | c4 ABcd | c4 c4 | c8 |] %17
V:2
 C4 C2 C2 | F2 D2 C[K:bass]A,A,F, | G,6 A,2 | C2 F2 E2 G2 | F6 z2 | z4 z2 C2 | F2 F2 F2 CA, | %7
 D2 D2 D2 C[K:bass]A, | G,2 G,2 G,2 A,B, | C2 C2 C2 F2 | C2 A,2 DFEG | F8 | z8 | z8 | %14
 F4 FD[K:bass]CB, | A,4 G,4 | F,8 |] %17
V:3
 F,4 F,2 F,2 | D,2 A,2 G,2 F,2 | C,6 F,G, | A,2 B,2 C2 C,2 | F,6 F,2 | A,2 A,2 A,2 CA, | %6
 F,2 F,2 F,2 A,F, | G,2 G,2 G,2 F,2 | C,2 C,2 C,2 F,2 | F,6 G,2 | A,2 F,2 CB,A,G, | F,8 | F,8 | %13
 F,8 | F,4 F,G,A,B, | C4 C,4 | F,8 |] %17

